z_dist/img/icons/crypto/iota-MIOTA.svg

<svg width="64" height="64" viewBox="0 0 64 64" fill="none" xmlns="http://www.w3.org/2000/svg">
<rect y="0.000244141" width="64" height="64" rx="4" fill="black"/>
<path fill-rule="evenodd" clip-rule="evenodd" d="M43.5241 13.5951C43.5241 14.9164 42.4657 15.9918 41.1633 15.9918C39.8608 15.9918 38.8025 14.9232 38.8025 13.602C38.8025 12.2807 39.8608 11.207 41.1633 11.2002C42.4657 11.2002 43.5241 12.2739 43.5241 13.5951ZM43.8587 20.1895C43.8671 21.3019 42.9722 22.2105 41.8598 22.2189C40.7536 22.2189 39.8609 21.3127 39.8609 20.1895C39.8609 19.0663 40.7553 18.1598 41.8598 18.1598C42.9642 18.1598 43.8587 19.0731 43.8587 20.1895ZM47.3478 23.0127C48.4471 23.0127 49.3416 22.1063 49.3416 20.9882C49.3416 19.8701 48.4471 18.9637 47.3478 18.9637C46.2485 18.9637 45.354 19.8701 45.354 20.9882C45.354 22.1063 46.2502 23.0127 47.3478 23.0127ZM48.3942 26.6111C48.3942 27.5653 47.6312 28.3403 46.6889 28.3403C45.7466 28.3403 44.9836 27.5653 44.9836 26.6111C44.9836 25.6568 45.7466 24.8819 46.6889 24.8819C47.6312 24.8819 48.3942 25.6568 48.3942 26.6111ZM51.0827 30.0678C52.0318 30.0678 52.8 29.2877 52.8 28.3266C52.8 27.3656 52.0318 26.5855 51.0827 26.5855C50.6241 26.5886 50.1855 26.7738 49.8635 27.1004C49.5414 27.4269 49.3623 27.868 49.3655 28.3266C49.3655 29.2877 50.1353 30.0678 51.0827 30.0678ZM42.407 27.0977C42.0792 27.4294 41.633 27.6172 41.1667 27.6199C40.2005 27.6199 39.4187 26.821 39.4187 25.848C39.4187 24.8682 40.1988 24.0762 41.1667 24.0762C42.1346 24.0762 42.9147 24.8699 42.9147 25.848V25.8514C42.9174 26.3178 42.7348 26.7661 42.407 27.0977ZM39.5826 31.8584C40.3934 31.8584 41.0472 31.1927 41.0472 30.375C41.0538 29.5624 40.4005 28.8983 39.5879 28.8916H39.5826C38.7718 28.8916 38.118 29.5574 38.118 30.375C38.118 31.1927 38.7718 31.8584 39.5826 31.8584ZM46.1105 32.1722C45.8381 32.4485 45.4671 32.6051 45.0792 32.6078H45.0652C44.6786 32.6028 44.3099 32.4444 44.0401 32.1676C43.7703 31.8907 43.6215 31.518 43.6265 31.1314C43.6265 30.3154 44.2752 29.6548 45.0792 29.6548C45.8832 29.6548 46.5318 30.3154 46.5318 31.1314V31.135C46.5345 31.5229 46.383 31.896 46.1105 32.1722ZM49.4611 34.3284C50.2719 34.3284 50.9257 33.6627 50.9257 32.8399C50.9257 32.0172 50.2719 31.3514 49.4611 31.3514C48.6502 31.3514 47.9965 32.0172 47.9965 32.8399C47.9879 33.6535 48.6405 34.3199 49.4541 34.3284H49.4611ZM48.5341 36.2898C48.5341 36.9794 47.9811 37.5444 47.2966 37.5444C46.6121 37.5444 46.059 36.9794 46.059 36.2898C46.059 35.6002 46.6121 35.0351 47.2966 35.0351C47.9811 35.0351 48.5341 35.6002 48.5341 36.2898ZM42.8942 35.8511C43.5907 35.8511 44.1608 35.2741 44.1608 34.5657C44.1608 33.8573 43.5958 33.2803 42.8942 33.2803C42.1926 33.2803 41.6276 33.8573 41.6276 34.5657C41.6276 35.2741 42.1977 35.8511 42.8942 35.8511ZM38.6581 33.7933C38.6576 34.4886 38.0996 35.055 37.4045 35.0659H37.4028C36.7076 35.054 36.1504 34.4869 36.1508 33.7916C36.1513 33.0963 36.7093 32.5299 37.4045 32.519H37.4062C38.1013 32.5309 38.6585 33.098 38.6581 33.7933ZM40.4566 38.0873C41.0626 38.0873 41.5491 37.5888 41.5491 36.9828C41.5548 36.3786 41.0695 35.8841 40.4653 35.8784H40.4566C39.8506 35.8784 39.3641 36.3769 39.3641 36.9828C39.3575 37.5862 39.8412 38.0806 40.4445 38.0873H40.4566ZM45.9617 38.6933C45.9617 39.3112 45.4632 39.8096 44.8573 39.8096C44.2407 39.8096 43.7409 39.3098 43.7409 38.6933C43.7409 38.0767 44.2407 37.5769 44.8573 37.5769C45.4701 37.5769 45.9617 38.0753 45.9617 38.6933ZM42.3787 41.1019C42.8584 41.1019 43.2493 40.7058 43.2493 40.2193C43.2521 39.7354 42.8626 39.3406 42.3787 39.3368C41.899 39.3368 41.5081 39.7328 41.5081 40.2193C41.5071 40.7025 41.8956 41.0962 42.3787 41.1019ZM40.5883 41.5595C40.4408 41.7089 40.2399 41.7936 40.0298 41.7949L40.0143 41.7947C39.5807 41.7872 39.2354 41.4296 39.2429 40.996V40.994C39.2416 40.784 39.3238 40.582 39.4713 40.4326C39.6189 40.2831 39.8198 40.1985 40.0298 40.1971C40.4617 40.1971 40.8168 40.5522 40.8168 40.996V40.9981C40.8181 41.2081 40.7359 41.41 40.5883 41.5595ZM37.9729 39.4973C38.4901 39.4973 38.9101 39.0705 38.9101 38.5482C38.9101 38.0258 38.4901 37.5991 37.9729 37.5991C37.4557 37.5991 37.0358 38.0258 37.0358 38.5482C37.0347 39.0681 37.453 39.4917 37.9729 39.4973ZM36.0474 36.2164C36.0474 36.8292 35.5558 37.3208 34.9549 37.3208C34.3492 37.3152 33.8615 36.8221 33.8624 36.2164C33.8624 35.6036 34.354 35.112 34.9549 35.112C35.5609 35.112 36.0474 35.6036 36.0474 36.2164ZM43.9047 51.1578C45.2021 51.1578 46.2536 50.0892 46.2536 48.7731C46.2536 47.457 45.2021 46.3885 43.9047 46.3885C42.6074 46.3885 41.5559 47.457 41.5559 48.7731C41.5559 50.0892 42.6074 51.1578 43.9047 51.1578ZM39.8967 46.1529C39.8967 47.2505 39.0193 48.1398 37.9388 48.1398C36.8565 48.1398 35.9808 47.2505 35.9808 46.1529C35.9808 45.0553 36.8582 44.1659 37.9388 44.1659C39.0193 44.1659 39.8967 45.0553 39.8967 46.1529ZM34.5299 52.5081C35.6223 52.5081 36.5049 51.6136 36.5049 50.5023C36.5049 49.3979 35.6223 48.4966 34.5299 48.4966C33.4374 48.4966 32.5548 49.3911 32.5548 50.5023C32.5463 51.6015 33.4305 52.4995 34.5297 52.5081H34.5299ZM34.7196 43.9461C34.3985 44.2717 33.9612 44.4564 33.5039 44.4595C32.5617 44.4595 31.7935 43.6794 31.7918 42.7235C31.7886 42.2663 31.9672 41.8265 32.2883 41.5009C32.6094 41.1753 33.0467 40.9907 33.5039 40.9875C33.9612 40.9907 34.3985 41.1753 34.7196 41.5009C35.0406 41.8265 35.2192 42.2663 35.2161 42.7235C35.2192 43.1808 35.0406 43.6206 34.7196 43.9461ZM30.1036 48.8875C31.0459 48.8875 31.8089 48.1125 31.8089 47.1583C31.8089 46.2041 31.0459 45.4291 30.1036 45.4291C29.1613 45.4291 28.3983 46.2041 28.3983 47.1583C28.3889 48.1038 29.1477 48.878 30.0932 48.8875H30.1036ZM28.1388 50.1678C28.1388 51.1169 27.3809 51.8918 26.4386 51.8918C25.5015 51.8918 24.7385 51.1169 24.7385 50.1678C24.7385 49.2187 25.4964 48.4437 26.4386 48.4437C27.3758 48.4437 28.1388 49.2136 28.1388 50.1678ZM23.3882 47.9811C24.1947 47.9737 24.8438 47.3162 24.8409 46.5097C24.8409 45.6988 24.1922 45.0382 23.3882 45.0382C22.5843 45.0505 21.939 45.7056 21.939 46.5097C21.939 47.3137 22.5843 47.9688 23.3882 47.9811ZM28.5127 43.4917C28.5174 44.2989 27.8673 44.9575 27.06 44.9631H27.0549C26.2509 44.9495 25.6067 44.2932 25.6081 43.4891C25.6095 42.6851 26.256 42.031 27.06 42.0202C27.864 42.0202 28.5127 42.6757 28.5127 43.4917ZM30.486 40.5368C30.8739 40.5342 31.2449 40.3775 31.5173 40.1013C31.7898 39.8251 31.9413 39.452 31.9386 39.064V39.0604C31.9386 38.2445 31.29 37.5839 30.486 37.5839C30.098 37.5865 29.727 37.7432 29.4546 38.0194C29.1822 38.2956 29.0306 38.6687 29.0333 39.0567V39.0603C29.0333 39.8762 29.682 40.5368 30.486 40.5368ZM26.5069 39.8677C26.5069 40.5761 25.9419 41.1462 25.2454 41.1462C24.549 41.1462 23.984 40.5761 23.984 39.8677C23.984 39.1593 24.549 38.5891 25.2454 38.5891C25.9419 38.5891 26.5069 39.1593 26.5069 39.8677ZM21.5925 44.1523C21.9257 44.1505 22.2445 44.0164 22.4788 43.7795C22.7132 43.5426 22.8438 43.2223 22.842 42.8891V42.8857C22.8486 42.1928 22.2923 41.6257 21.5995 41.6191H21.5925C21.2592 41.6209 20.9404 41.755 20.7061 41.9919C20.4717 42.2288 20.3411 42.5491 20.3429 42.8823V42.8857C20.3407 43.2193 20.471 43.5402 20.7054 43.7778C20.9397 44.0153 21.2588 44.15 21.5925 44.1523ZM21.8331 39.5365C21.835 40.136 21.3521 40.6243 20.7526 40.629C20.1586 40.629 19.6721 40.1425 19.6721 39.5365C19.6721 38.9357 20.1586 38.444 20.7526 38.444C21.3466 38.444 21.8331 38.9305 21.8331 39.5365ZM20.7219 37.5376C20.9695 37.5354 21.2061 37.4348 21.3796 37.2581C21.5531 37.0814 21.6494 36.843 21.6471 36.5954C21.6471 36.0781 21.2323 35.6531 20.7219 35.6531C20.2115 35.6531 19.7967 36.073 19.7967 36.5954C19.7967 37.1177 20.2115 37.5376 20.7219 37.5376ZM22.0175 34.168C22.0175 34.6067 21.6693 34.9669 21.2306 34.9669C20.7919 34.9669 20.4436 34.6067 20.4436 34.168C20.4436 33.7293 20.7919 33.3691 21.2306 33.3691C21.6624 33.3691 22.0175 33.7293 22.0175 34.168ZM24.38 34.5367C24.8972 34.5367 25.3171 34.1099 25.3171 33.5876C25.3171 33.0653 24.8972 32.6385 24.38 32.6385C23.8628 32.6385 23.4428 33.0653 23.4428 33.5876C23.4409 34.1079 23.8597 34.532 24.38 34.5367ZM28.9292 32.0854C28.9292 32.6914 28.4376 33.1899 27.8367 33.1899H27.8316C27.5409 33.1876 27.2631 33.07 27.0591 32.8629C26.8552 32.6557 26.7419 32.3761 26.7442 32.0854C26.7442 31.4794 27.2358 30.981 27.8367 30.981H27.8454C28.4496 30.9867 28.9349 31.4812 28.9292 32.0854ZM28.6595 36.6961C29.344 36.6946 29.8979 36.139 29.8972 35.4545C29.8965 34.77 29.3414 34.2154 28.6569 34.2154C27.9724 34.2154 27.4173 34.77 27.4166 35.4545C27.4159 36.139 27.9698 36.6946 28.6543 36.6961H28.6595ZM25.5049 36.5305C25.5049 37.1382 25.0252 37.6298 24.4244 37.6298V37.6296H24.4121C24.1247 37.6255 23.8506 37.5074 23.6503 37.3013C23.45 37.0952 23.3397 36.8179 23.3438 36.5305V36.5252C23.342 36.2368 23.4548 35.9595 23.6575 35.7544C23.8601 35.5492 24.136 35.4329 24.4244 35.4312C25.0184 35.4312 25.5049 35.9228 25.5049 36.5305ZM12.4753 35.9996C13.7658 35.9996 14.8173 34.9361 14.8173 33.6269C14.8173 32.3176 13.7658 31.2541 12.4753 31.2541C11.1848 31.2541 10.1333 32.3193 10.1333 33.6286C10.1333 34.9378 11.1848 35.9996 12.4753 35.9996ZM19.7967 29.7264C19.7967 30.8496 18.9022 31.7628 17.7909 31.7628C16.6865 31.7628 15.7852 30.8564 15.7852 29.7264V29.7228C15.7777 28.6075 16.6757 27.6974 17.7909 27.6899C18.8954 27.6899 19.7967 28.6031 19.7967 29.7264ZM15.7169 26.5394C16.8214 26.5394 17.7107 25.6329 17.7107 24.5149C17.7107 23.3968 16.8162 22.4903 15.7169 22.4903C15.1845 22.4939 14.6754 22.7088 14.3014 23.0878C13.9275 23.4668 13.7195 23.9789 13.7231 24.5113V24.5149C13.7119 25.6216 14.5998 26.5279 15.7065 26.5394H15.7169ZM22.5535 22.3282C22.5535 23.2892 21.7836 24.0642 20.8414 24.0642C19.8991 24.0642 19.1292 23.2892 19.1292 22.3282C19.1292 21.3671 19.8974 20.5921 20.8414 20.5921C21.7853 20.5921 22.5535 21.3671 22.5535 22.3282ZM22.9359 29.2757C23.885 29.2757 24.6531 28.4956 24.6531 27.5346C24.6531 26.5735 23.885 25.7934 22.9359 25.7934C21.9868 25.7934 21.2186 26.5735 21.2186 27.5346C21.2186 28.4956 21.9868 29.2757 22.9359 29.2757ZM29.0589 26.7102C29.0653 27.5228 28.412 28.1868 27.5994 28.1935L27.589 28.1936C26.7793 28.1841 26.1305 27.52 26.1399 26.7102V26.6655C26.1479 26.1441 26.4335 25.6665 26.889 25.4127C27.3446 25.1589 27.9009 25.1675 28.3485 25.4351C28.7961 25.7027 29.0669 26.1888 29.0589 26.7102ZM31.628 28.2071C32.3244 28.2071 32.8894 27.637 32.8894 26.9337C32.8894 26.2304 32.3244 25.6603 31.628 25.6603C30.9247 25.6603 30.3545 26.2304 30.3545 26.9337C30.3545 27.637 30.9247 28.2071 31.628 28.2071ZM36.0201 27.8981C36.0201 28.4939 35.5387 28.9736 34.9566 28.9736C34.3728 28.9736 33.9 28.4871 33.8932 27.8981C33.8912 27.308 34.3665 26.8273 34.9566 26.8227C35.5455 26.8227 36.0201 27.3024 36.0201 27.8981ZM35.3902 25.0509C35.9043 25.0472 36.3183 24.6278 36.3154 24.1137C36.3154 23.5965 35.9006 23.1766 35.3902 23.1766C34.8798 23.1766 34.465 23.5965 34.465 24.1137C34.4621 24.6278 34.8761 25.0472 35.3902 25.0509ZM33.8932 22.6997C33.894 23.288 33.418 23.7657 32.8297 23.7672H32.8244C32.2361 23.7657 31.7601 23.288 31.7608 22.6997C31.7616 22.1113 32.2387 21.6348 32.827 21.6348C33.4154 21.6348 33.8925 22.1113 33.8932 22.6997ZM29.5403 22.9888C30.2347 22.9832 30.7936 22.4166 30.7898 21.7222C30.7898 21.0189 30.2316 20.4556 29.5403 20.4556C28.8489 20.4556 28.2908 21.0257 28.2908 21.7222C28.288 22.0554 28.4178 22.376 28.6515 22.6136C28.8852 22.8511 29.2037 22.9861 29.5369 22.9888H29.5403ZM26.9832 21.5105C26.9832 22.3282 26.3294 22.9939 25.5186 22.9939C24.7055 22.9864 24.0511 22.3236 24.054 21.5105C24.054 20.6929 24.7077 20.0271 25.5186 20.0271C26.3294 20.0271 26.9832 20.6929 26.9832 21.5105ZM20.1022 19.2846C21.0206 19.2846 21.7597 18.5335 21.7597 17.6032C21.7597 16.6729 21.0155 15.9218 20.1022 15.9218C19.1839 15.9218 18.4447 16.6729 18.4447 17.6032C18.4447 18.5335 19.189 19.2846 20.1022 19.2846ZM26.2287 16.7821C26.2287 17.5998 25.5749 18.2655 24.7641 18.2655C23.9532 18.2655 23.2995 17.5998 23.2995 16.7821C23.2995 15.9645 23.9532 15.2987 24.7641 15.2987C25.5749 15.2987 26.2287 15.9645 26.2287 16.7821ZM28.7909 18.2843C29.4874 18.2843 30.0524 17.7141 30.0524 17.0057C30.0524 16.2973 29.4874 15.7272 28.7909 15.7272C28.4545 15.729 28.1326 15.8643 27.8961 16.1035C27.6595 16.3426 27.5276 16.6659 27.5294 17.0023V17.0057C27.5265 17.7064 28.0902 18.2778 28.7909 18.2843ZM33.1591 17.9702C33.1591 18.5659 32.6846 19.0456 32.0957 19.0456C31.5017 19.0456 31.0203 18.5641 31.0203 17.9702C31.0203 17.3763 31.5017 16.8948 32.0957 16.8948C32.6846 16.8948 33.1591 17.3744 33.1591 17.9702ZM34.634 20.3634C35.1613 20.3597 35.5859 19.9297 35.5831 19.4024C35.5831 18.8681 35.1563 18.4413 34.634 18.4413C34.1116 18.4413 33.6849 18.8732 33.6849 19.4024C33.6849 19.9315 34.1116 20.3634 34.634 20.3634ZM37.0501 21.6422C36.9038 21.7904 36.7046 21.8745 36.4963 21.8758L36.4967 21.8757H36.4844C36.2775 21.8726 36.0803 21.7874 35.9363 21.6389C35.7922 21.4903 35.713 21.2907 35.7162 21.0838V21.0821C35.7149 20.8738 35.7963 20.6735 35.9426 20.5253C36.0889 20.3771 36.2881 20.2931 36.4963 20.2917H36.498C36.7063 20.2935 36.9053 20.378 37.0513 20.5265C37.1973 20.6751 37.2783 20.8755 37.2764 21.0838V21.0855C37.2778 21.2937 37.1964 21.494 37.0501 21.6422Z" fill="white"/>
</svg>

<svg width="64" height="64" fill="none" xmlns="http://www.w3.org/2000/svg"><rect width="64" height="64" rx="4" fill="#000"/><path fill-rule="evenodd" clip-rule="evenodd" d="M43.524 13.595c0 1.321-1.058 2.397-2.36 2.397-1.303 0-2.361-1.069-2.361-2.39 0-1.321 1.058-2.395 2.36-2.402 1.303 0 2.361 1.074 2.361 2.395zm.335 6.594a2.014 2.014 0 01-2 2.03c-1.105 0-1.998-.906-1.998-2.03 0-1.123.894-2.03 1.999-2.03 1.104 0 1.999.914 1.999 2.03zm3.489 2.824c1.1 0 1.994-.907 1.994-2.025 0-1.118-.895-2.024-1.994-2.024-1.1 0-1.994.906-1.994 2.024 0 1.118.896 2.025 1.994 2.025zm1.046 3.598c0 .954-.763 1.73-1.705 1.73a1.718 1.718 0 01-1.705-1.73c0-.954.763-1.73 1.705-1.73.942 0 1.705.776 1.705 1.73zm2.689 3.457c.949 0 1.717-.78 1.717-1.741a1.73 1.73 0 00-1.717-1.742 1.729 1.729 0 00-1.718 1.742c0 .96.77 1.74 1.718 1.74zm-8.676-2.97c-.328.331-.774.52-1.24.522-.967 0-1.748-.799-1.748-1.772 0-.98.78-1.772 1.748-1.772s1.748.794 1.748 1.772v.003c.002.467-.18.915-.508 1.247zm-2.824 4.76c.81 0 1.464-.665 1.464-1.483a1.471 1.471 0 00-1.46-1.483h-.004c-.811 0-1.465.665-1.465 1.483 0 .818.654 1.483 1.465 1.483zm6.528.314a1.462 1.462 0 01-1.032.436h-.014a1.458 1.458 0 01-1.438-1.477c0-.816.648-1.476 1.452-1.476.804 0 1.453.66 1.453 1.476v.004c.003.388-.149.761-.421 1.037zm3.35 2.156c.81 0 1.465-.665 1.465-1.488s-.654-1.489-1.465-1.489c-.81 0-1.465.666-1.465 1.489a1.473 1.473 0 001.458 1.488h.007zm-.927 1.962c0 .69-.553 1.254-1.237 1.254a1.248 1.248 0 01-1.238-1.254c0-.69.553-1.255 1.238-1.255.684 0 1.237.565 1.237 1.255zm-5.64-.439c.697 0 1.267-.577 1.267-1.285 0-.709-.565-1.286-1.267-1.286-.701 0-1.266.577-1.266 1.286 0 .708.57 1.285 1.266 1.285zm-4.236-2.058c0 .696-.558 1.262-1.254 1.273h-.001a1.274 1.274 0 01.002-2.547h.001a1.274 1.274 0 011.252 1.274zm1.799 4.294a1.1 1.1 0 001.092-1.104 1.094 1.094 0 00-1.084-1.105h-.008a1.1 1.1 0 00-1.093 1.105 1.093 1.093 0 001.08 1.104h.013zm5.505.606c0 .618-.499 1.117-1.105 1.117a1.116 1.116 0 110-2.233c.613 0 1.105.498 1.105 1.116zm-3.583 2.409c.48 0 .87-.396.87-.883a.877.877 0 00-.87-.882c-.48 0-.87.396-.87.882a.88.88 0 00.87.883zm-1.79.458a.792.792 0 01-.56.235h-.015a.785.785 0 01-.771-.799v-.002a.792.792 0 01.787-.797c.432 0 .787.355.787.799v.002a.792.792 0 01-.229.562zm-2.616-2.063a.945.945 0 00.937-.949.945.945 0 00-.937-.949.945.945 0 00-.937.95.947.947 0 00.937.948zm-1.926-3.28c0 .612-.491 1.104-1.092 1.104a1.103 1.103 0 01-1.093-1.105c0-.612.492-1.104 1.093-1.104.606 0 1.092.492 1.092 1.104zm7.858 14.94c1.297 0 2.349-1.068 2.349-2.384 0-1.316-1.052-2.385-2.35-2.385-1.297 0-2.348 1.069-2.348 2.385 0 1.316 1.051 2.385 2.349 2.385zm-4.008-5.004c0 1.098-.878 1.987-1.958 1.987-1.083 0-1.958-.89-1.958-1.987 0-1.098.877-1.987 1.958-1.987 1.08 0 1.958.89 1.958 1.987zm-5.367 6.355c1.092 0 1.975-.894 1.975-2.006 0-1.104-.883-2.005-1.975-2.005-1.093 0-1.975.894-1.975 2.005a1.99 1.99 0 001.975 2.006zm.19-8.562a1.73 1.73 0 01-1.216.514c-.942 0-1.71-.78-1.712-1.736a1.724 1.724 0 011.712-1.736 1.724 1.724 0 011.712 1.736c.003.457-.175.897-.496 1.222zm-4.616 4.942c.942 0 1.705-.776 1.705-1.73s-.763-1.729-1.705-1.729c-.943 0-1.706.775-1.706 1.73-.01.945.75 1.719 1.695 1.729h.01zm-1.965 1.28c0 .949-.758 1.724-1.7 1.724-.938 0-1.7-.775-1.7-1.724 0-.95.757-1.724 1.7-1.724.937 0 1.7.77 1.7 1.724zm-4.75-2.187a1.466 1.466 0 001.452-1.471c0-.811-.649-1.472-1.453-1.472a1.472 1.472 0 000 2.943zm5.124-4.49a1.463 1.463 0 01-1.453 1.472h-.005a1.472 1.472 0 01.005-2.943 1.46 1.46 0 011.453 1.472zm1.973-2.954a1.462 1.462 0 001.453-1.473v-.004c0-.816-.649-1.476-1.453-1.476a1.462 1.462 0 00-1.453 1.473v.003c0 .816.649 1.477 1.453 1.477zm-3.98-.67c0 .71-.564 1.28-1.26 1.28a1.27 1.27 0 01-1.262-1.28c0-.708.565-1.278 1.261-1.278.697 0 1.262.57 1.262 1.279zm-4.913 4.285a1.256 1.256 0 001.249-1.263v-.003a1.255 1.255 0 00-1.242-1.267h-.008a1.256 1.256 0 00-1.25 1.263v.004a1.258 1.258 0 001.25 1.266zm.24-4.616c.002.6-.48 1.088-1.08 1.093-.594 0-1.08-.486-1.08-1.093 0-.6.486-1.092 1.08-1.092.594 0 1.08.486 1.08 1.092zm-1.111-1.998a.933.933 0 00.925-.943.936.936 0 00-.925-.942c-.51 0-.925.42-.925.942 0 .523.415.943.925.943zm1.295-3.37a.792.792 0 01-.786.799.792.792 0 01-.787-.799c0-.439.348-.799.787-.799.431 0 .786.36.786.799zm2.363.369a.945.945 0 00.937-.95.945.945 0 00-.937-.949.945.945 0 00-.937.95.946.946 0 00.937.949zm4.55-2.452c0 .606-.492 1.105-1.093 1.105h-.005a1.096 1.096 0 01-1.088-1.105c0-.606.492-1.104 1.093-1.104h.008c.605.006 1.09.5 1.084 1.104zm-.27 4.611a1.24 1.24 0 10-.006 0h.006zm-3.155-.165c0 .607-.48 1.099-1.08 1.099h-.013a1.084 1.084 0 01-1.068-1.1v-.005a1.087 1.087 0 011.08-1.094c.594 0 1.08.492 1.08 1.1zM12.475 36c1.29 0 2.342-1.064 2.342-2.373 0-1.31-1.051-2.373-2.342-2.373-1.29 0-2.342 1.065-2.342 2.375 0 1.309 1.052 2.37 2.342 2.37zm7.322-6.274c0 1.124-.895 2.037-2.006 2.037-1.105 0-2.006-.907-2.006-2.037v-.003a2.02 2.02 0 012.006-2.033c1.104 0 2.006.913 2.006 2.036zm-4.08-3.187c1.104 0 1.994-.906 1.994-2.024 0-1.118-.895-2.025-1.994-2.025a2.008 2.008 0 00-1.994 2.021v.004a2.004 2.004 0 001.983 2.024h.01zm6.836-4.21c0 .96-.77 1.735-1.712 1.735a1.725 1.725 0 01-1.712-1.736c0-.96.768-1.736 1.712-1.736s1.712.775 1.712 1.736zm.383 6.947c.949 0 1.717-.78 1.717-1.741a1.73 1.73 0 00-1.717-1.742c-.95 0-1.717.78-1.717 1.742a1.73 1.73 0 001.717 1.74zm6.123-2.566a1.472 1.472 0 01-1.46 1.483h-.01a1.466 1.466 0 01-1.45-1.483v-.044a1.46 1.46 0 012.92.044zm2.569 1.497c.696 0 1.261-.57 1.261-1.273 0-.704-.565-1.274-1.261-1.274a1.273 1.273 0 100 2.547zm4.392-.309c0 .596-.481 1.076-1.063 1.076-.584 0-1.057-.487-1.064-1.076a1.072 1.072 0 011.064-1.075c.588 0 1.063.48 1.063 1.075zm-.63-2.847a.932.932 0 00.925-.937.932.932 0 00-.925-.937c-.51 0-.925.42-.925.937a.932.932 0 00.925.937zM33.893 22.7a1.065 1.065 0 01-1.063 1.067h-.006a1.066 1.066 0 111.07-1.067zm-4.353.289a1.26 1.26 0 001.25-1.267c0-.703-.558-1.266-1.25-1.266-.691 0-1.25.57-1.25 1.266a1.256 1.256 0 001.247 1.267h.003zm-2.557-1.479c0 .818-.654 1.484-1.464 1.484a1.478 1.478 0 01-1.465-1.483c0-.818.654-1.484 1.465-1.484.81 0 1.464.666 1.464 1.483zm-6.88-2.225c.918 0 1.657-.752 1.657-1.682a1.67 1.67 0 00-1.658-1.681c-.918 0-1.657.75-1.657 1.681 0 .93.744 1.682 1.657 1.682zm6.126-2.503c0 .818-.654 1.483-1.465 1.483-.81 0-1.465-.665-1.465-1.483 0-.818.654-1.483 1.465-1.483.81 0 1.465.665 1.465 1.483zm2.562 1.502c.696 0 1.261-.57 1.261-1.278 0-.709-.565-1.279-1.261-1.279a1.268 1.268 0 00-1.262 1.275v.004c-.003.7.561 1.272 1.262 1.278zm4.368-.314c0 .596-.474 1.076-1.063 1.076a1.075 1.075 0 110-2.151c.589 0 1.063.48 1.063 1.075zm1.475 2.393a.956.956 0 00.95-.96.954.954 0 00-.95-.962.957.957 0 00-.95.961c0 .53.428.961.95.961zm2.416 1.28a.785.785 0 01-.554.233h-.012a.78.78 0 01-.768-.792v-.002a.786.786 0 01.78-.79h.002a.785.785 0 01.778.792v.002a.785.785 0 01-.226.556z" fill="#fff"/></svg>
